X:689
T: "Luftschloesser"
N: Z1370
O: Europa, Mitteleuropa, Oesterreich
R: Kinder - Lied
M: 3/4
L: 1/8
K: F
A2A2B2 | c4A2 |
B2B2G2 | A4F2 |
A2A2B2 | c4A2 |
B2B2G2 | A6 |
F3GAB | c4f2 |
B2B2G2 | F6

@@@ Tune index: 10447
